X:27
T:Bourree in G Major (Water Music)
C:Handel, G.F.
M:2/2
L:1/8
Q:1/2=84
K:G
|:D|GGAB cBAG|FGAB cBAG|ABCD EFGA|B4 B2 AB|
cdec BAGF|GABC DEFG|ABcd efge|d4 d2:|

